X:151
T: Miss Cortney
O: No 151 Page 73 No 1 Wm Clarke of Feltwell 
Z: Anahata <anahata@treewind.co.uk>
M: 6/8
L: 1/8
K:G
%%stretchlast
d/c/| BAB BAB |cAd B2G| FEF FEF | GBd d2c |
BAB BAB | cAd B2G| FEF FEF | GBG G2 :|
|:d | gdB gdB | cAd B2G| gdB gdB| cAd G2d |
gdB gdB | cAd B2G| gdB gdB | cAd G2 :|

